X: 47
T: Miss Molly's Wigg
%%VWML:Thompsons1774-3047-p24-0
F:http://www.vwml.org/record/Thompsons1774/3047/p24
M: 2/4
L: 1/8
Z: 2011 John Chambers <jc:trillian.mit.edu>
B: Charles & Samuel Thompson eds "Twenty Four Country Dances", London 1774, p.24 #1 
K: G
%-------------------------
|:\
d>Bc>A | (B>G)G2 | d>Bc>A | B4 |\
(D>FA>c) | B>GTe2 | A>FE>^c | d4 :| |:\
d=fed | ecc2 | egfe | f>dd2 |\
e>ca2 | d>Bg2 | e>cB>A | G4 :|
% - - - - - - - - Dance description - - - - - - - - 
%%begintext align
%% Hands a cross foot it .|. hands a cross back again 
%% and foot it :|. cross over and half figure right
%% Hands and left .|: :|:
%%endtext
T: May Day Morn 
R: jig
M: 6/8
L: 1/8
Z: 2011 John Chambers <jc:trillian.mit.edu>
B: Charles & Samuel Thompson eds "Twenty Four Country Dances", London 1774, p.24 #2 
K: G
%-------------------------
|:dBG g2d|BGBA2c |BGdg2c|BdDG>GG:|
|: fdf Ta2g | fdA e^cA | fdf g2c | BcA G>GG :|
|:B2D c2D|DFAcBA |B2Dd2g|BdDG>GG:|
% - - - - - - - - Dance description - - - - - - - -
%%begintext align
%% The first Man sets and turns the 2d Wo: .|. the first Wo:
%% set and turns the 2d Man :|. cross over one Cu: and lead
%% up cast back and turn .|: :|: set and back to back
%% foot it right hands and left .|:. :|:.
%%endtext
